apps/scalable/retroarch.svg

<svg xmlns="http://www.w3.org/2000/svg" style="isolation:isolate" width="256" height="256">
    <defs>
        <filter id="a" width="400%" height="400%" x="-200%" y="-200%" color-interpolation-filters="sRGB" filterUnits="objectBoundingBox">
            <feGaussianBlur xmlns="http://www.w3.org/2000/svg" in="SourceGraphic" stdDeviation="4.294"/>
            <feOffset xmlns="http://www.w3.org/2000/svg" dy="4" result="pf_100_offsetBlur"/>
            <feFlood xmlns="http://www.w3.org/2000/svg" flood-opacity=".4"/>
            <feComposite xmlns="http://www.w3.org/2000/svg" in2="pf_100_offsetBlur" operator="in" result="pf_100_dropShadow"/>
            <feBlend xmlns="http://www.w3.org/2000/svg" in="SourceGraphic" in2="pf_100_dropShadow"/>
        </filter>
    </defs>
    <g filter="url(#a)">
        <linearGradient id="b" x1="0" x2="0" y1="0" y2="1" gradientTransform="matrix(244.648 0 0 228.338 5.43 11.452)" gradientUnits="userSpaceOnUse">
            <stop offset="0%" stop-color="#b16286"/>
            <stop offset="100%" stop-color="#b16286"/>
        </linearGradient>
        <path fill="url(#b)" d="M165.439 11.452c74.056 0 84.639 10.557 84.639 84.543v59.251c0 73.987-10.583 84.544-84.639 84.544h-75.37c-74.055 0-84.639-10.557-84.639-84.544V95.995c0-73.986 10.584-84.543 84.639-84.543h75.37z"/>
    </g>
    <g opacity=".4">
        <linearGradient id="c" x1=".517" x2=".517" y1="0" y2="1" gradientTransform="matrix(244.65 0 0 228.34 5.68 11.95)" gradientUnits="userSpaceOnUse">
            <stop offset="0%" stop-color="#ebdbb2"/>
            <stop offset="12.5%" stop-opacity=".098" stop-color="#ebdbb2"/>
            <stop offset="92.5%" stop-opacity=".098"/>
            <stop offset="100%" stop-opacity=".498"/>
        </linearGradient>
        <path fill="url(#c)" fill-rule="evenodd" d="M165.068 11.951c4.328-.01 8.656.04 12.984.138 3.875.078 7.751.226 11.626.452 3.453.196 6.905.481 10.348.854 3.059.335 6.118.786 9.148 1.346 2.715.502 5.4 1.14 8.046 1.916 2.4.698 4.751 1.562 7.023 2.584a40.385 40.385 0 0 1 6.059 3.35 35.172 35.172 0 0 1 5.135 4.215 35.058 35.058 0 0 1 4.219 5.119 41.674 41.674 0 0 1 3.364 6.042 56.008 56.008 0 0 1 2.597 7.005 80.05 80.05 0 0 1 1.918 8.037 124.589 124.589 0 0 1 1.348 9.127c.374 3.439.659 6.878.856 10.326.226 3.861.373 7.732.462 11.593.088 4.323.138 8.646.128 12.959v58.212c.01 4.323-.04 8.636-.128 12.959a326.856 326.856 0 0 1-.462 11.593 201.12 201.12 0 0 1-.856 10.326 124.856 124.856 0 0 1-1.348 9.137 80.519 80.519 0 0 1-1.918 8.027 55.43 55.43 0 0 1-2.597 7.005 41.153 41.153 0 0 1-3.364 6.042 34.536 34.536 0 0 1-4.219 5.119 35.172 35.172 0 0 1-5.135 4.215 40.385 40.385 0 0 1-6.059 3.35 55.194 55.194 0 0 1-7.023 2.594 78.035 78.035 0 0 1-8.046 1.906c-3.03.569-6.089 1.011-9.148 1.346a202.81 202.81 0 0 1-10.348.854c-3.875.226-7.751.374-11.626.462-4.328.088-8.656.138-12.984.128H90.942c-4.328.01-8.656-.04-12.984-.128a327.282 327.282 0 0 1-11.626-.462 202.81 202.81 0 0 1-10.348-.854 120.942 120.942 0 0 1-9.148-1.346 78.035 78.035 0 0 1-8.046-1.906 55.194 55.194 0 0 1-7.023-2.594 40.385 40.385 0 0 1-6.059-3.35 35.172 35.172 0 0 1-5.135-4.215 34.536 34.536 0 0 1-4.219-5.119 41.153 41.153 0 0 1-3.364-6.042 55.43 55.43 0 0 1-2.597-7.005 80.519 80.519 0 0 1-1.918-8.027 124.856 124.856 0 0 1-1.348-9.137 201.12 201.12 0 0 1-.856-10.326 326.856 326.856 0 0 1-.462-11.593 571.312 571.312 0 0 1-.128-12.959V97.014c-.01-4.313.04-8.636.128-12.959.089-3.861.236-7.732.462-11.593.197-3.448.482-6.887.856-10.326.335-3.055.787-6.101 1.348-9.127a80.05 80.05 0 0 1 1.918-8.037 56.008 56.008 0 0 1 2.597-7.005 41.674 41.674 0 0 1 3.364-6.042 35.058 35.058 0 0 1 4.219-5.119 35.172 35.172 0 0 1 5.135-4.215 40.385 40.385 0 0 1 6.059-3.35 53.663 53.663 0 0 1 7.023-2.584 80.763 80.763 0 0 1 8.046-1.916c3.03-.56 6.089-1.011 9.148-1.346a202.81 202.81 0 0 1 10.348-.854c3.875-.226 7.751-.374 11.626-.452a520.43 520.43 0 0 1 12.984-.138h74.126zm.01 4.009c4.298-.01 8.597.039 12.895.127 3.827.089 7.653.236 11.479.452 3.384.197 6.767.472 10.131.845 2.971.315 5.932.747 8.863 1.297a76.091 76.091 0 0 1 7.653 1.818 50.445 50.445 0 0 1 6.501 2.397 37.043 37.043 0 0 1 5.469 3.026 30.377 30.377 0 0 1 4.525 3.724 31.053 31.053 0 0 1 3.738 4.519 37.261 37.261 0 0 1 3.029 5.443 51.33 51.33 0 0 1 2.4 6.494 75.456 75.456 0 0 1 1.83 7.634 120.85 120.85 0 0 1 1.298 8.842c.374 3.36.65 6.73.846 10.11.217 3.822.374 7.634.453 11.456.088 4.293.137 8.577.137 12.87v58.212c0 4.293-.049 8.577-.137 12.87a316.867 316.867 0 0 1-.453 11.456c-.196 3.38-.472 6.75-.846 10.12a121.383 121.383 0 0 1-1.298 8.832 75.456 75.456 0 0 1-1.83 7.634 50.767 50.767 0 0 1-2.4 6.494 36.749 36.749 0 0 1-3.029 5.443 30.61 30.61 0 0 1-3.738 4.529 30.94 30.94 0 0 1-4.525 3.714 37.043 37.043 0 0 1-5.469 3.026 49.001 49.001 0 0 1-6.501 2.397 76.091 76.091 0 0 1-7.653 1.818c-2.931.55-5.892.982-8.863 1.306-3.364.364-6.747.649-10.131.836-3.826.216-7.652.373-11.479.452-4.298.098-8.597.137-12.895.137H90.932c-4.298 0-8.597-.039-12.895-.137a321.281 321.281 0 0 1-11.479-.452 193.497 193.497 0 0 1-10.131-.836 116.655 116.655 0 0 1-8.863-1.306 76.091 76.091 0 0 1-7.653-1.818 49.001 49.001 0 0 1-6.501-2.397 37.043 37.043 0 0 1-5.469-3.026 30.94 30.94 0 0 1-4.525-3.714 30.61 30.61 0 0 1-3.738-4.529 36.749 36.749 0 0 1-3.029-5.443 50.767 50.767 0 0 1-2.4-6.494 75.456 75.456 0 0 1-1.83-7.634 121.383 121.383 0 0 1-1.298-8.832c-.374-3.37-.649-6.74-.846-10.12a316.867 316.867 0 0 1-.453-11.456 627.536 627.536 0 0 1-.137-12.87V97.014c0-4.293.049-8.577.137-12.87.079-3.822.236-7.634.453-11.456.197-3.38.472-6.75.846-10.11a120.85 120.85 0 0 1 1.298-8.842 75.456 75.456 0 0 1 1.83-7.634 51.33 51.33 0 0 1 2.4-6.494 37.261 37.261 0 0 1 3.029-5.443 31.053 31.053 0 0 1 3.738-4.519 30.377 30.377 0 0 1 4.525-3.724 37.043 37.043 0 0 1 5.469-3.026 50.445 50.445 0 0 1 6.501-2.397 76.091 76.091 0 0 1 7.653-1.818 112.27 112.27 0 0 1 8.863-1.297 194.61 194.61 0 0 1 10.131-.845c3.826-.216 7.652-.363 11.479-.452 4.298-.088 8.597-.137 12.895-.127H165.078z"/>
    </g>
    <path fill="#ebdbb2" d="M93.625 82.313l13.75 20.625h-27.5l-3.437 13.75H60.969l5.156-20.625H55.813L45.5 137.313h24.75l-4.125 13.75h24.063L73 171.688h20.625l13.75-20.625h41.25l13.75 20.625H183l-17.187-20.625h24.062l-4.125-13.75h24.75l-10.312-41.25h-10.313l5.156 20.625h-15.468l-3.438-13.75h-27.5l13.75-20.625h-10.312l-13.75 20.625h-20.625l-13.75-20.625H93.625z"/>
    <path fill="#b16286" d="M148.625 113.25v17.188h17.188V113.25h-17.188zM90.188 113.25v17.188h17.187V113.25H90.188z"/>
</svg>

<svg xmlns="http://www.w3.org/2000/svg" style="isolation:isolate" width="256" height="256" viewBox="0 0 256 256">
 <defs>
  <filter id="CdcCoGuH5G5wQOm0Zm5rUWRQwENjhHnp" width="400%" height="400%" x="-200%" y="-200%" color-interpolation-filters="sRGB" filterUnits="objectBoundingBox">
   <feGaussianBlur xmlns="http://www.w3.org/2000/svg" in="SourceGraphic" stdDeviation="4.294"/>
   <feOffset xmlns="http://www.w3.org/2000/svg" dx="0" dy="4" result="pf_100_offsetBlur"/>
   <feFlood xmlns="http://www.w3.org/2000/svg" flood-opacity=".4"/>
   <feComposite xmlns="http://www.w3.org/2000/svg" in2="pf_100_offsetBlur" operator="in" result="pf_100_dropShadow"/>
   <feBlend xmlns="http://www.w3.org/2000/svg" in="SourceGraphic" in2="pf_100_dropShadow" mode="normal"/>
  </filter>
 </defs>
 <g filter="url(#CdcCoGuH5G5wQOm0Zm5rUWRQwENjhHnp)">
  <linearGradient id="_lgradient_109" x1="0" x2="0" y1="0" y2="1" gradientTransform="matrix(244.648,0,0,228.338,5.43,11.452)" gradientUnits="userSpaceOnUse">
   <stop offset="0%" style="stop-color:#edc268"/>
   <stop offset="100%" style="stop-color:#9b7424"/>
  </linearGradient>
  <path fill="url(#_lgradient_109)" d="M 165.439 11.452 C 239.495 11.452 250.078 22.009 250.078 95.995 L 250.078 155.246 C 250.078 229.233 239.495 239.79 165.439 239.79 L 90.069 239.79 C 16.014 239.79 5.43 229.233 5.43 155.246 L 5.43 95.995 C 5.43 22.009 16.014 11.452 90.069 11.452 L 165.439 11.452 Z"/>
 </g>
 <g opacity=".4">
  <linearGradient id="_lgradient_110" x1=".517" x2=".517" y1="0" y2="1" gradientTransform="matrix(244.65,0,0,228.34,5.68,11.95)" gradientUnits="userSpaceOnUse">
   <stop offset="0%" style="stop-color:#ffffff"/>
   <stop offset="12.5%" stop-opacity=".098" style="stop-color:#ffffff"/>
   <stop offset="92.5%" stop-opacity=".098" style="stop-color:#000000"/>
   <stop offset="100%" stop-opacity=".498" style="stop-color:#000000"/>
  </linearGradient>
  <path fill="url(#_lgradient_110)" fill-rule="evenodd" d="M 165.068 11.951 C 169.396 11.941 173.724 11.991 178.052 12.089 C 181.927 12.167 185.803 12.315 189.678 12.541 C 193.131 12.737 196.583 13.022 200.026 13.395 C 203.085 13.73 206.144 14.181 209.174 14.741 C 211.889 15.243 214.574 15.881 217.22 16.657 C 219.62 17.355 221.971 18.219 224.243 19.241 C 226.358 20.184 228.384 21.304 230.302 22.591 C 232.142 23.829 233.863 25.244 235.437 26.806 C 237.001 28.378 238.417 30.088 239.656 31.925 C 240.945 33.841 242.066 35.865 243.02 37.967 C 244.043 40.247 244.909 42.585 245.617 44.972 C 246.394 47.615 247.034 50.297 247.535 53.009 C 248.096 56.035 248.548 59.081 248.883 62.136 C 249.257 65.575 249.542 69.014 249.739 72.462 C 249.965 76.323 250.112 80.194 250.201 84.055 C 250.289 88.378 250.339 92.701 250.329 97.014 L 250.329 155.226 C 250.339 159.549 250.289 163.862 250.201 168.185 C 250.112 172.056 249.965 175.917 249.739 179.778 C 249.542 183.226 249.257 186.675 248.883 190.104 C 248.548 193.159 248.096 196.215 247.535 199.241 C 247.034 201.943 246.394 204.625 245.617 207.268 C 244.909 209.655 244.043 212.003 243.02 214.273 C 242.066 216.385 240.945 218.399 239.656 220.315 C 238.417 222.152 237.001 223.872 235.437 225.434 C 233.863 226.996 232.142 228.411 230.302 229.649 C 228.384 230.936 226.358 232.056 224.243 232.999 C 221.971 234.021 219.62 234.885 217.22 235.593 C 214.574 236.369 211.889 237.007 209.174 237.499 C 206.144 238.068 203.085 238.51 200.026 238.845 C 196.583 239.218 193.131 239.503 189.678 239.699 C 185.803 239.925 181.927 240.073 178.052 240.161 C 173.724 240.249 169.396 240.299 165.068 240.289 L 90.942 240.289 C 86.614 240.299 82.286 240.249 77.958 240.161 C 74.083 240.073 70.207 239.925 66.332 239.699 C 62.879 239.503 59.427 239.218 55.984 238.845 C 52.925 238.51 49.866 238.068 46.836 237.499 C 44.121 237.007 41.436 236.369 38.79 235.593 C 36.39 234.885 34.039 234.021 31.767 232.999 C 29.652 232.056 27.626 230.936 25.708 229.649 C 23.868 228.411 22.147 226.996 20.573 225.434 C 19.009 223.872 17.593 222.152 16.354 220.315 C 15.065 218.399 13.944 216.385 12.99 214.273 C 11.967 212.003 11.101 209.655 10.393 207.268 C 9.616 204.625 8.976 201.943 8.475 199.241 C 7.914 196.215 7.462 193.159 7.127 190.104 C 6.753 186.675 6.468 183.226 6.271 179.778 C 6.045 175.917 5.898 172.056 5.809 168.185 C 5.721 163.862 5.671 159.549 5.681 155.226 L 5.681 97.014 C 5.671 92.701 5.721 88.378 5.809 84.055 C 5.898 80.194 6.045 76.323 6.271 72.462 C 6.468 69.014 6.753 65.575 7.127 62.136 C 7.462 59.081 7.914 56.035 8.475 53.009 C 8.976 50.297 9.616 47.615 10.393 44.972 C 11.101 42.585 11.967 40.247 12.99 37.967 C 13.944 35.865 15.065 33.841 16.354 31.925 C 17.593 30.088 19.009 28.378 20.573 26.806 C 22.147 25.244 23.868 23.829 25.708 22.591 C 27.626 21.304 29.652 20.184 31.767 19.241 C 34.039 18.219 36.39 17.355 38.79 16.657 C 41.436 15.881 44.121 15.243 46.836 14.741 C 49.866 14.181 52.925 13.73 55.984 13.395 C 59.427 13.022 62.879 12.737 66.332 12.541 C 70.207 12.315 74.083 12.167 77.958 12.089 C 82.286 11.991 86.614 11.941 90.942 11.951 L 165.068 11.951 Z M 165.078 15.96 C 169.376 15.95 173.675 15.999 177.973 16.087 C 181.8 16.176 185.626 16.323 189.452 16.539 C 192.836 16.736 196.219 17.011 199.583 17.384 C 202.554 17.699 205.515 18.131 208.446 18.681 C 211.023 19.153 213.58 19.762 216.099 20.499 C 218.322 21.147 220.495 21.953 222.6 22.896 C 224.509 23.751 226.338 24.763 228.069 25.922 C 229.692 27.013 231.207 28.26 232.594 29.646 C 233.981 31.031 235.23 32.544 236.332 34.165 C 237.492 35.894 238.506 37.712 239.361 39.608 C 240.306 41.72 241.112 43.892 241.761 46.102 C 242.509 48.617 243.109 51.162 243.591 53.736 C 244.132 56.664 244.565 59.611 244.889 62.578 C 245.263 65.938 245.539 69.308 245.735 72.688 C 245.952 76.51 246.109 80.322 246.188 84.144 C 246.276 88.437 246.325 92.721 246.325 97.014 C 246.325 97.014 246.325 97.014 246.325 97.014 L 246.325 155.226 C 246.325 155.226 246.325 155.226 246.325 155.226 C 246.325 159.519 246.276 163.803 246.188 168.096 C 246.109 171.918 245.952 175.74 245.735 179.552 C 245.539 182.932 245.263 186.302 244.889 189.672 C 244.565 192.629 244.132 195.576 243.591 198.504 C 243.109 201.078 242.509 203.623 241.761 206.138 C 241.112 208.358 240.306 210.52 239.361 212.632 C 238.506 214.528 237.492 216.356 236.332 218.075 C 235.23 219.706 233.981 221.219 232.594 222.604 C 231.207 223.98 229.692 225.227 228.069 226.318 C 226.338 227.477 224.509 228.489 222.6 229.344 C 220.495 230.297 218.322 231.093 216.099 231.741 C 213.58 232.478 211.023 233.087 208.446 233.559 C 205.515 234.109 202.554 234.541 199.583 234.865 C 196.219 235.229 192.836 235.514 189.452 235.701 C 185.626 235.917 181.8 236.074 177.973 236.153 C 173.675 236.251 169.376 236.29 165.078 236.29 C 165.078 236.29 165.078 236.29 165.068 236.29 L 90.942 236.29 C 90.932 236.29 90.932 236.29 90.932 236.29 C 86.634 236.29 82.335 236.251 78.037 236.153 C 74.21 236.074 70.384 235.917 66.558 235.701 C 63.174 235.514 59.791 235.229 56.427 234.865 C 53.456 234.541 50.495 234.109 47.564 233.559 C 44.987 233.087 42.43 232.478 39.911 231.741 C 37.688 231.093 35.515 230.297 33.41 229.344 C 31.501 228.489 29.672 227.477 27.941 226.318 C 26.318 225.227 24.803 223.98 23.416 222.604 C 22.029 221.219 20.78 219.706 19.678 218.075 C 18.518 216.356 17.504 214.528 16.649 212.632 C 15.704 210.52 14.898 208.358 14.249 206.138 C 13.501 203.623 12.901 201.078 12.419 198.504 C 11.878 195.576 11.445 192.629 11.121 189.672 C 10.747 186.302 10.472 182.932 10.275 179.552 C 10.058 175.74 9.901 171.918 9.822 168.096 C 9.734 163.803 9.685 159.519 9.685 155.226 C 9.685 155.226 9.685 155.226 9.685 155.226 L 9.685 97.014 C 9.685 97.014 9.685 97.014 9.685 97.014 C 9.685 92.721 9.734 88.437 9.822 84.144 C 9.901 80.322 10.058 76.51 10.275 72.688 C 10.472 69.308 10.747 65.938 11.121 62.578 C 11.445 59.611 11.878 56.664 12.419 53.736 C 12.901 51.162 13.501 48.617 14.249 46.102 C 14.898 43.892 15.704 41.72 16.649 39.608 C 17.504 37.712 18.518 35.894 19.678 34.165 C 20.78 32.544 22.029 31.031 23.416 29.646 C 24.803 28.26 26.318 27.013 27.941 25.922 C 29.672 24.763 31.501 23.751 33.41 22.896 C 35.515 21.953 37.688 21.147 39.911 20.499 C 42.43 19.762 44.987 19.153 47.564 18.681 C 50.495 18.131 53.456 17.699 56.427 17.384 C 59.791 17.011 63.174 16.736 66.558 16.539 C 70.384 16.323 74.21 16.176 78.037 16.087 C 82.335 15.999 86.634 15.95 90.932 15.96 C 90.932 15.96 90.932 15.96 90.942 15.96 L 165.068 15.96 C 165.078 15.96 165.078 15.96 165.078 15.96 Z"/>
 </g>
 <g>
  <path fill="#3b3b3b" d="M 93.625 82.313 L 107.375 102.938 L 79.875 102.938 L 76.438 116.688 L 60.969 116.688 L 66.125 96.063 L 55.813 96.063 L 45.5 137.313 L 55.206 137.313 L 70.25 137.313 L 66.125 151.063 L 90.188 151.063 L 73 171.688 L 93.625 171.688 L 107.375 151.063 L 148.625 151.063 L 162.375 171.688 L 183 171.688 L 165.813 151.063 L 189.875 151.063 L 185.75 137.313 L 210.5 137.313 L 200.188 96.063 L 189.875 96.063 L 195.031 116.688 L 179.563 116.688 L 176.125 102.938 L 148.625 102.938 L 162.375 82.313 L 152.063 82.313 L 138.313 102.938 L 117.688 102.938 L 103.938 82.313 L 93.625 82.313 Z"/>
  <path fill="#ffffff" d="M 148.625 113.25 L 148.625 130.438 L 165.813 130.438 L 165.813 113.25 L 148.625 113.25 Z"/>
  <path fill="#ffffff" d="M 90.188 113.25 L 90.188 130.438 L 107.375 130.438 L 107.375 113.25 L 90.188 113.25 Z"/>
 </g>
</svg>
